outputs/icons/audio_video/fast_rewind_round.svg

<svg width="1200" height="1200" viewBox="0 0 1200 1200" fill="none" xmlns="http://www.w3.org/2000/svg"><g clip-path="url(#clip0_231_5120)"><path d="M550 803.5V396.501C550 356.001 504.5 332.501 471 355.501L182.5 559C154.5 579 154.5 621 182.5 640.5L471 844C504.5 867.5 550 844 550 803.5ZM633 641L921.5 844.5C954.5 868 1000.5 844 1000.5 803.5V396.501C1000.5 356.001 955 332.501 921.5 355.501L633 559C604.5 579 604.5 621 633 641Z" fill="black"/></g><defs><clipPath id="clip0_231_5120"><path width="24" fill="white" d="M0 0H1200V1200H0V0z"/></clipPath></defs></svg>

<svg xmlns="http://www.w3.org/2000/svg" width="1200" height="1200" fill="none"><g clip-path="url(#a)"><path fill="#000" d="M550 803.5V396.501c0-40.5-45.5-64-79-41L182.5 559c-28 20-28 62 0 81.5L471 844c33.5 23.5 79 0 79-40.5M633 641l288.5 203.5c33 23.5 79-.5 79-41V396.501c0-40.5-45.5-64-79-41L633 559c-28.5 20-28.5 62 0 82"/></g><defs><clipPath id="a"><path fill="#fff" d="M0 0h1200v1200H0z"/></clipPath></defs></svg>
